img/fb.svg

<svg width="24" height="24" viewBox="0 0 24 24" fill="none" xmlns="http://www.w3.org/2000/svg"><path d="M21 0H3C1.345 0 0 1.345 0 3v18c0 1.654 1.345 3 3 3h18c1.654 0 3-1.346 3-3V3c0-1.655-1.346-3-3-3z" fill="#3B5999"/><path d="M16.5 12V9c0-.828.672-.75 1.5-.75h1.5V4.5h-3A4.5 4.5 0 0012 9v3H9v3.75h3V24h4.5v-8.25h2.25l1.5-3.75H16.5z" fill="#fff"/></svg>

<svg width="24" height="24" viewBox="0 0 24 24" fill="none" xmlns="http://www.w3.org/2000/svg">
<path d="M21 0H3C1.345 0 0 1.345 0 3V21C0 22.654 1.345 24 3 24H21C22.654 24 24 22.654 24 21V3C24 1.345 22.654 0 21 0Z" fill="#3B5999"/>
<path d="M16.5 12V9C16.5 8.172 17.172 8.25 18 8.25H19.5V4.5H16.5C14.014 4.5 12 6.514 12 9V12H9V15.75H12V24H16.5V15.75H18.75L20.25 12H16.5Z" fill="white"/>
</svg>
